icon/pk/future-build-three.svg

<svg width="48" height="48" fill="none" xmlns="http://www.w3.org/2000/svg"><path d="m20 8 4-4 4 4v36h-8V8Z" stroke="#000" stroke-width="4" stroke-linejoin="round"/><path d="m12 20 8-8v32h-8V20ZM4 35l8-7v16H4v-9ZM28 12l8 8v24h-8V12ZM36 28l8 6.5V44h-8V28Z" stroke="#000" stroke-width="4" stroke-linecap="round" stroke-linejoin="round"/></svg>

<svg viewBox="0 0 48 48" fill="none" xmlns="http://www.w3.org/2000/svg" height="1em" width="1em">
  <path d="M20 8L24 4L28 8V44H20V8Z" stroke="black" stroke-width="4" stroke-linejoin="round"/>
  <path d="M12 20L20 12V44H12V20Z" stroke="black" stroke-width="4" stroke-linecap="round" stroke-linejoin="round"/>
  <path d="M4 35L12 28V44H4V35Z" stroke="black" stroke-width="4" stroke-linecap="round" stroke-linejoin="round"/>
  <path d="M28 12L36 20V44H28V12Z" stroke="black" stroke-width="4" stroke-linecap="round" stroke-linejoin="round"/>
  <path d="M36 28L44 34.5V44H36V28Z" stroke="black" stroke-width="4" stroke-linecap="round" stroke-linejoin="round"/>
</svg>
